X:32
T:Bakers Breakdown
C:Kenny Baker 
N:Arranged by Dan Freeman
R:bluegrass
L:1/8
Q:1/4=215
M:4/4
K:G
[GG,][EG,] | "G"[DG,][DB,] [DG,][GG,] "C"[EG,][EC] [EG,][GG,] | "G"[DG,][DB,] [DG,][FG,] G2 [B2G2] | 
"D"DF Ad cA dc | "G"BG Be d4 | "G"[DG,][DB,] [DG,][FG,] "C"[EG,][FG,] [GG,][EG,] | 
"G"[DG,][DB,] [DG,][FG,] [G2G,2] [B2G2] | "D"DF Ad cA dc | "G"BG AF G4 | "G"[DG,][DB,] [DG,][FG,] "C"[EG,][FG,] [GG,][EG,] | 
"G"[DG,][DB,] [DG,][FG,] [G2G,2] [B2G2G,2] | "D"DF Ad cA dc | "G"BG Be d4 | "G"G,B, DF "C"EF GE | 
"G"DB, DF GF GE | "D"DF Ad cA dc | "G"BG AF G2 FG | "D"AB AG FD EF | DF Ag f2 d2 | 
"A"A^c ea ge ag | "D"fd fb a4 | "D"DF A^c "G"Bc dB | "D"AF A^c d2 [f2d2] | 
K:A
"A"Ac ea =ge ag | "D"fa ec d2 a=g | fd Ad f2 fa | fd Ad f2 f2 | "A"Ac ea =ge ag | 
"D"fd fb a2 a=g | fd Ad f2 fa | fd Ad f2 f2 | "A"Ac ea =ge cA | "D"[f2d2] [f2c2] [f2=c2] [=G=G,][EG,] | 
K:G
"G"[DG,][DB,] [DG,][GG,] "C"[EG,][EC] [EG,][GG,] | "G"[DG,][DB,] [DG,][FG,] G2 [B2G2] | 
"D"DF Ad cA dc | "G"BG Be d4 | "G"[DG,][DB,] [DG,][FG,] "C"[EG,][FG,] [GG,][EG,] | 
"G"[DG,][DB,] [DG,][FG,] [G2G,2] [B2G2] | "D"DF Ad cA dc | "G"Bd AF G4 | "G"[DG,][DB,] [DG,][FG,] "C"[EG,][FG,] [GG,][EG,] | 
"G"[DG,][DB,] [DG,][FG,] [G2G,2] [B2G2] | "D"DF Ad cA dc | "G"BG Be d4 | "G"G,B, DF "C"EF GE | 
"G"DB, DF GF GE | "D"DF Ad cA FD | "G"[B2G2] [BG][BG] [B4G4] | 

